X:1
T: Fill your Glasses
C:
R:Strathspey
Q: 128
K:D
M:4/4
L:1/16
|:D3E F3G A4 B3c|ddd2 e3f d4 c4|BBB2 g3B AAA2 f3A|G3F E3D CE3 E4|
D3E F3G A4 B3c|ddd2 e3f d4 c4|BBB2 g3B AAA2 f3A|BBB2 e3c d6A2|
a3g f3e d4 e3f|g3f e3d ((3c2B2A2) ((3G2F2E2) |D3E F3G A4 B3c|ddd2 e3f d6A2|
a3g f3e d4 e3f|g3f e3d ((3c2B2A2) ((3G2F2E2) |D3E F3G A4 B3c|ddd2 e3f d8:|
